source/images/projects/wikify.svg

<?xml version="1.0" encoding="UTF-8" standalone="no"?>
<svg width="348px" height="358px" viewBox="0 0 348 358" version="1.1" xmlns="http://www.w3.org/2000/svg" xmlns:xlink="http://www.w3.org/1999/xlink" xmlns:sketch="http://www.bohemiancoding.com/sketch/ns">
    <!-- Generator: Sketch 3.3.3 (12081) - http://www.bohemiancoding.com/sketch -->
    <title>wikify</title>
    <desc>Created with Sketch.</desc>
    <defs></defs>
    <g id="Page-1" stroke="none" stroke-width="1" fill="none" fill-rule="evenodd" sketch:type="MSPage">
        <path d="M78.2716301,91.1685664 L78.289653,91.1685664 L105.547824,91.1685664 C107.109811,91.1685664 108.365909,89.8984008 108.368913,88.3508083 C108.368913,88.3408109 108.037992,65.0144526 108.037992,58.5276606 L108.037992,58.4506808 C108.037992,53.1230835 109.157916,48.4783065 111.108397,44.5858314 L112.040583,42.8377916 C111.93645,42.855287 111.831817,42.9062736 111.728186,43.0102462 L58.7648181,95.450439 C58.6611863,95.5354166 58.5966042,95.6458875 58.566566,95.7593577 C59.6619593,95.2180002 61.1598645,94.478195 61.3716339,94.3852195 C65.9840007,92.3072666 71.5766142,91.1685664 78.2716301,91.1685664 L78.2716301,91.1685664 Z M290.375418,85.4585698 C288.210164,73.8856169 281.318899,68.1821186 275.088474,65.939709 C268.366424,63.5138477 254.736086,61.0010093 237.610303,58.98554 C223.832278,57.3654666 207.638179,57.4944326 197.856237,57.7963531 C196.682244,49.7674671 191.04207,42.4323983 184.731042,39.8930669 C167.916155,33.1353462 141.93661,34.7679163 135.266125,36.6344249 C129.965883,38.1135355 124.098921,41.1447374 120.833768,45.8160075 C118.643982,48.9361859 117.22718,52.9336334 117.216166,58.5181631 C117.216166,61.6788309 117.304278,69.1243705 117.384881,75.7396287 C117.464983,82.3753816 117.552093,88.310319 117.552093,88.3508083 C117.54909,94.2587528 112.75349,99.0669868 106.81043,99.0744848 L79.5477532,99.0744848 C73.7323563,99.0744848 69.2892047,100.050228 65.8948873,101.589823 C62.4955635,103.130917 60.0880012,105.20837 58.2586743,107.666223 C54.6175429,112.546938 53.9852387,118.569852 54.0002578,124.716234 C54.0002578,124.716234 54.0538259,129.738911 55.2658676,139.460351 C56.2736494,146.982371 64.4435412,199.529536 72.2034115,215.510828 C75.2122386,221.728691 77.2162877,224.318509 83.1273063,227.059287 C96.2975584,232.689305 126.380323,238.952656 140.479756,240.746184 C154.553658,242.54421 163.386893,246.323715 168.651089,235.303117 C168.668612,235.275624 169.70543,232.561339 171.131745,228.579387 C175.702058,214.751528 176.337867,202.482258 176.337867,193.603596 C176.337867,192.700834 177.664554,192.659344 177.664554,193.603596 C177.664554,199.871945 176.465529,222.053605 193.247375,228.004538 C199.872302,230.350421 213.615783,232.44187 227.580045,234.07594 C240.206605,235.524558 249.36976,240.485752 249.36976,272.830236 C249.36976,292.508555 245.229995,295.206844 223.589469,295.206844 C206.047156,295.206844 199.361151,295.660225 199.361151,281.744889 C199.361151,270.49835 210.501321,271.67704 218.757823,271.67704 C222.445514,271.67704 219.76911,268.938261 219.76911,261.999588 C219.76911,255.097405 224.092609,251.107455 220.003408,251.006482 C191.453093,250.222189 174.654225,250.973991 174.654225,286.625104 C174.654225,318.990082 187.059004,325 227.579544,325 C259.349955,325 270.5492,323.961273 283.667386,283.320474 C286.264189,275.297586 292.541674,250.813533 296.341006,209.704357 C298.743562,183.7117 294.077127,105.259356 290.375418,85.4585698 L290.375418,85.4585698 Z M234.993474,172.173238 C231.068482,172.036274 227.29318,172.283709 223.772702,172.848561 C224.763462,164.859164 228.066163,155.055745 239.766045,155.466137 C252.717519,155.91102 254.532327,168.133302 254.578386,176.412122 C249.11744,173.980762 242.35684,172.43167 234.993474,172.173238 L234.993474,172.173238 Z" id="Shape" stroke="#A7ADBA" stroke-width="1.5" fill="#4F5B66" sketch:type="MSShapeGroup"></path>
        <path d="M1,1 L74,1 L74,28.8065887 L33.3177083,28.8065887 L33.3177083,329.193411 L74,329.193411 L74,357 L1,357 L1,1 Z" id="[" stroke="#A7ADBA" stroke-width="1.5" fill="#4F5B66" sketch:type="MSShapeGroup"></path>
        <path d="M274,1 L347,1 L347,28.8065887 L306.317708,28.8065887 L306.317708,329.193411 L347,329.193411 L347,357 L274,357 L274,1 Z" id="]" stroke="#A7ADBA" stroke-width="1.5" fill="#4F5B66" sketch:type="MSShapeGroup" transform="translate(310.500000, 179.000000) scale(-1, 1) translate(-310.500000, -179.000000) "></path>
    </g>
</svg>

<svg width="348" height="358" viewBox="0 0 348 358" xmlns="http://www.w3.org/2000/svg"><title>wikify</title><g fill="#4F5B66" fill-rule="evenodd" stroke="#A7ADBA" stroke-width="1.5"><path d="M78.27 91.17h27.27c1.56 0 2.82-1.27 2.82-2.82 0 0-.33-23.34-.33-29.82v-.08c0-5.33 1.12-9.97 3.07-13.86l.94-1.76c-.1.02-.2.07-.3.17L58.75 95.46c-.1.1-.16.2-.2.3l2.8-1.36c4.62-2.1 10.22-3.23 16.9-3.23zm212.1-5.7c-2.16-11.58-9.05-17.3-15.28-19.53-6.73-2.43-20.36-4.94-37.5-6.95-13.77-1.63-29.96-1.5-39.74-1.2-1.18-8.03-6.82-15.37-13.13-17.9-16.8-6.76-42.8-5.13-49.46-3.27-5.3 1.48-11.17 4.5-14.44 9.2-2.2 3.1-3.6 7.1-3.6 12.7 0 3.15.07 10.6.15 17.2l.17 12.62c0 5.9-4.8 10.72-10.74 10.72H79.56c-5.82 0-10.26.98-13.66 2.52-3.4 1.53-5.8 3.6-7.64 6.07-3.64 4.88-4.27 10.9-4.26 17.05 0 0 .05 5.02 1.27 14.74 1 7.52 9.17 60.07 16.93 76.05 3 6.23 5.02 8.82 10.93 11.56 13.17 5.63 43.25 11.9 57.35 13.7 14.07 1.78 22.9 5.56 28.17-5.46.02-.02 1.06-2.74 2.48-6.72 4.57-13.83 5.2-26.1 5.2-34.98 0-.9 1.33-.94 1.33 0 0 6.27-1.2 28.45 15.6 34.4 6.6 2.35 20.36 4.44 34.32 6.08 12.63 1.44 21.8 6.4 21.8 38.75 0 19.68-4.15 22.38-25.8 22.38-17.53 0-24.22.46-24.22-13.46 0-11.24 11.14-10.06 19.4-10.06 3.7 0 1-2.74 1-9.68 0-6.9 4.33-10.9.24-11-28.55-.78-45.35-.03-45.35 35.63 0 32.36 12.4 38.37 52.93 38.37 31.77 0 42.97-1.04 56.1-41.68 2.58-8.02 8.86-32.5 12.66-73.62 2.4-26-2.26-104.44-5.96-124.24zM235 172.16c-3.93-.13-7.7.1-11.23.68 1-8 4.3-17.8 16-17.38 12.95.44 14.76 12.66 14.8 20.94-5.45-2.42-12.2-3.97-19.58-4.23z"/><path d="M1 1h73v27.8H33.32v300.4H74V357H1V1zM347 1h-73v27.8h40.68v300.4H274V357h73V1z"/></g></svg>
